symbolic/24x24/actions/format-convert-to-path.svg

<svg xmlns="http://www.w3.org/2000/svg" width="24" height="24" viewBox="0 0 24 24">
 <defs>
  <style id="current-color-scheme" type="text/css">
   .ColorScheme-Text { color:#323a41; } .ColorScheme-Highlight { color:#4285f4; } .ColorScheme-NeutralText { color:#ff9800; } .ColorScheme-PositiveText { color:#4caf50; } .ColorScheme-NegativeText { color:#f44336; }
  </style>
 </defs>
 <path style="fill:currentColor" class="ColorScheme-Text" d="M 4.5 0 C 2.1827 -1e-05 1.6464031 2.556 1.5332031 6 L 0 6 L 0 10 L 4 10 L 4 6 L 2.5488281 6 C 2.6581181 3.1289 3.07112 1 4.5 1 C 6.196 1 7.1133312 3.1158 7.3945312 6 L 6 6 L 6 10 L 7.6503906 10 C 8.0773806 13.4818 9.314 15.9971 11.5 16 C 14.0026 15.99999 14.187481 13.4596 14.425781 10 L 16 10 L 16 6 L 12 6 L 12 10 L 13.425781 10 C 13.220351 12.899 13.06687 15 11.5 15 C 9.8244 14.996 8.9897313 12.9207 8.6445312 10 L 10 10 L 10 6 L 8.3867188 6 C 8.0243888 2.556 6.7106 0 4.5 0 z" transform="translate(4 4)"/>
</svg>

<svg xmlns="http://www.w3.org/2000/svg" width="24" height="24"><defs><style id="current-color-scheme" type="text/css"></style></defs><path style="fill:currentColor;color:#323a41" d="M4.5 0C2.183 0 1.646 2.556 1.533 6H0v4h4V6H2.549c.11-2.871.522-5 1.951-5 1.696 0 2.613 2.116 2.895 5H6v4h1.65c.427 3.482 1.664 5.997 3.85 6 2.503 0 2.687-2.54 2.926-6H16V6h-4v4h1.426c-.206 2.899-.36 5-1.926 5-1.676-.004-2.51-2.08-2.855-5H10V6H8.387C8.024 2.556 6.71 0 4.5 0z" transform="translate(4 4)"/></svg>
